X: 5
T: Bach Minuet 2
C: J. S. Bach 1685-1750
M: 3/4
L: 1/8
K: G
|:\
"G"GB dg "D"Af |"G".g2 .G2- .G2 |      GB     dg  "D"Af  |"G".g2 .G2- .G2 |\
"C"e2 e2    eg |"G" d2  d2   dg |  "Am"c2     dc     Bc  |"D7"A6          ||
"G"GB dg "D"Af |"G".g2 .G2- .G2 |      GB     dg  "D"Af  |"G".g2 .G2- .G2 |\
"C"e2 dc    BA |"G" d2  cB   AG |"D"(3(ABc) (.D2    .F2) | "G"G6         :|
|:\
"Em" GA BA    GF |    G2  .E2-     .E2  |       gf        eg    fe  | "B"f2 .B2-   .B2 |\
"Em" gf eg    fe |"B" f2 (.B2  "Em".e2) |    (3(fga) "B"(.B2  .^d2) |"Em"e2 ^de "D7"f2 |
 "G" g2 gf    ed |"C" e2   ed       cB  |"Am"   c2        cB    AG  | "D"F2  EF     D2 |\
 "D"(A2 D2)  .D2 |"G"(B2   D2)     .D2  |"Am"   c2        dc    Bc  |"D7"A6           ||
 "G" GB dg "D"Af |"G".g2  .G2-     .G2  |       GB        dg "D"Af  |"G".g2 .G2-   .G2 "^I"|\
 "C" e2 dc    BA |"G" d2   cB       AG  | "D"(3(ABc)    (.D2   .F2) | "G"G6           :|


